**kern	**silbe	**harmony	**chordsym	**phrase	**timestamp	**leadinstrument
*ICvox	*	*M4/4	*M4/4	*	*	*
*b:	*	*b:	*b:	*b:	*b:	*b:
*M4/4	*	*	*	*	*	*
*clefF4	*	*	*	*	*	*
r;	.	1r;	r	.	0	r
r;	.	1r;	r	.	0.464	r
=1	=1	=1	=1	=1	=1	=1
*	*	*>A2_solo	*>A2_solo	*>A2_solo	*>A2_solo	*>A2_solo
1r	.	1Bm	B:min (B D F#)	newline	18.367	guitar
=2	=2	=2	=2	=2	=2	=2
1r	.	1GMM	G:maj7 (G B D F#)	.	.	guitar
=3	=3	=3	=3	=3	=3	=3
1r	.	1Bm	B:min (B D F#)	.	.	guitar
=4	=4	=4	=4	=4	=4	=4
1r	.	1GMM	G:maj7 (G B D F#)	.	.	guitar
=5	=5	=5	=5	=5	=5	=5
1r	.	1Bm	B:min (B D F#)	newline	28.119	guitar
=6	=6	=6	=6	=6	=6	=6
1r	.	1DM	D:maj (A D F#)	.	.	guitar
=7	=7	=7	=7	=7	=7	=7
1r	.	1GMM	G:maj7 (G B D F#)	.	.	guitar
=8	=8	=8	=8	=8	=8	=8
*M2/4	*	*M2/4	*M2/4	*M2/4	*M2/4	*M2/4
2r	.	4Em	E:5 (E B)	.	.	guitar
.	.	4F#m	F#:sus4 (F# B C#)	.	.	guitar
=9	=9	=9	=9	=9	=9	=9
*M4/4	*	*>A2_solo	*>A2_solo	*>A2_solo	*>A2_solo	*>A2_solo
*	*	*M4/4	*M4/4	*M4/4	*M4/4	*M4/4
1r	.	1Bm	B:min (B D F#)	newline	36.595	guitar
=10	=10	=10	=10	=10	=10	=10
1r	.	1GMM	G:maj7 (G B D F#)	.	.	guitar
=11	=11	=11	=11	=11	=11	=11
1r	.	1Bm	B:min (B D F#)	.	.	guitar
=12	=12	=12	=12	=12	=12	=12
1r	.	1GMM	G:maj7 (G B D F#)	.	.	guitar
=13	=13	=13	=13	=13	=13	=13
1r	.	1Bm	B:min (B D F#)	newline	46.244	guitar
=14	=14	=14	=14	=14	=14	=14
1r	.	1DM	D:maj (A D F#)	.	.	guitar
=15	=15	=15	=15	=15	=15	=15
1r	.	1GMM	G:maj7 (G B D F#)	.	.	guitar
=16	=16	=16	=16	=16	=16	=16
*M2/4	*	*M2/4	*M2/4	*M2/4	*M2/4	*M2/4
2r	.	4Em	E:5 (E B)	.	.	guitar
.	.	4F#m	F#:sus4 (F# B C#)	.	.	guitar
=17	=17	=17	=17	=17	=17	=17
*M4/4	*	*>A2_solo	*>A2_solo	*>A2_solo	*>A2_solo	*>A2_solo
*	*	*M4/4	*M4/4	*M4/4	*M4/4	*M4/4
1r	.	1Bm	B:min (B D F#)	newline	54.706	guitar
=18	=18	=18	=18	=18	=18	=18
1r	.	1GMM	G:maj7 (G B D F#)	.	.	guitar
=19	=19	=19	=19	=19	=19	=19
1r	.	1Bm	B:min (B D F#)	.	.	guitar
=20	=20	=20	=20	=20	=20	=20
1r	.	1GMM	G:maj7 (G B D F#)	.	.	guitar
=21	=21	=21	=21	=21	=21	=21
1r	.	1Bm	B:min (B D F#)	newline	64.303	guitar
=22	=22	=22	=22	=22	=22	=22
1r	.	1DM	D:maj (A D F#)	.	.	guitar
=23	=23	=23	=23	=23	=23	=23
1r	.	1GMM	G:maj7 (G B D F#)	.	.	guitar
=24	=24	=24	=24	=24	=24	=24
1r	.	4Em	E:5 (E B)	.	.	guitar
.	.	4F#m	F#:sus4 (F# B C#)	.	.	guitar
.	.	2Em	E:5 (E B)	.	.	guitar
=25	=25	=25	=25	=25	=25	=25
*M3/4	*	*>A_solo	*>A_solo	*>A_solo	*>A_solo	*>A_solo
*	*	*M3/4	*M3/4	*M3/4	*M3/4	*M3/4
2.r	.	2.Bm	B:min (B D F#)	newline	73.826	guitar
=26	=26	=26	=26	=26	=26	=26
2.r	.	2.GMM	G:maj7 (G B D F#)	.	.	guitar
=27	=27	=27	=27	=27	=27	=27
2.r	.	2.Bm	B:min (B D F#)	.	.	guitar
=28	=28	=28	=28	=28	=28	=28
2.r	.	2.GMM	G:maj7 (G B D F#)	.	.	guitar
=29	=29	=29	=29	=29	=29	=29
2.r	.	2.Bm	B:min (B D F#)	newline	81.0	guitar
=30	=30	=30	=30	=30	=30	=30
2.r	.	2.DM	D:maj (A D F#)	.	.	guitar
=31	=31	=31	=31	=31	=31	=31
2.r	.	2.GMM	G:maj7 (G B D F#)	.	.	guitar
=32	=32	=32	=32	=32	=32	=32
2.r	.	2Em	E:sus2 (E F# B)	.	.	guitar
.	.	4F#m	F#:5 (F# C#)	.	.	guitar
=33	=33	=33	=33	=33	=33	=33
2.r	.	4AM	A:maj (A C# E)	.	.	guitar
.	.	2GM	G:maj (G B D)	.	.	guitar
=34	=34	=34	=34	=34	=34	=34
*	*	*>B_preverse	*>B_preverse	*>B_preverse	*>B_preverse	*>B_preverse
2.r	.	2.DM	D:maj (D F# A)	newline	89.931	guitar
=35	=35	=35	=35	=35	=35	=35
2.r	.	2.GM	G:maj (G B D)	.	.	guitar
=36	=36	=36	=36	=36	=36	=36
2.r	.	2.FM	F:maj(9) (F A C G)	.	.	guitar
=37	=37	=37	=37	=37	=37	=37
2.r	.	2.Em	E:min (E G B)	.	.	guitar
=38	=38	=38	=38	=38	=38	=38
2.r	.	2.DM	D:maj (D F# A)	newline	97.011	guitar
=39	=39	=39	=39	=39	=39	=39
2.r	.	2.GM	G:maj (G B D)	.	.	guitar
=40	=40	=40	=40	=40	=40	=40
2.r	.	2.FM	F:maj(9) (F A C G)	.	.	guitar
=41	=41	=41	=41	=41	=41	=41
2.r	.	4CM	C:1 (C)	.	.	guitar
.	.	2Em	E:min (E G B)	.	.	guitar
=42	=42	=42	=42	=42	=42	=42
*	*	*>A_verse	*>A_verse	*>A_verse	*>A_verse	*>A_verse
4r	.	2.Bm	B:min (B D F#)	newline	104.051	voice
8F#	I	.	.	.	.	.
16F#	can't	.	.	.	.	.
16F#	re-	.	.	.	.	.
8F#	-mem-	.	.	.	.	.
8F#	-ber	.	.	.	.	.
=43	=43	=43	=43	=43	=43	=43
4G	an-	2.GMM	G:maj7 (G B D F#)	.	.	voice
8F#	-y-	.	.	.	.	.
4.F#	-thing	.	.	.	.	.
=44	=44	=44	=44	=44	=44	=44
4r	.	2.Bm	B:min (B D F#)	.	.	voice
8F#	can't	.	.	.	.	.
16F#	tell	.	.	.	.	.
16F#	if	.	.	.	.	.
8F#	this	.	.	.	.	.
8F#	is	.	.	.	.	.
=45	=45	=45	=45	=45	=45	=45
4G	true	4AM	A:sus4 (A D E)	.	.	voice
8F#	or	2GMM	G:maj7 (G B D F#)	.	.	voice
8D	_	.	.	.	.	.
4D	dream	.	.	.	.	.
=46	=46	=46	=46	=46	=46	=46
4r	.	2.Bm	B:min (B D F#)	newline	111.26	voice
8F#	Deep	.	.	.	.	.
16F#	down	.	.	.	.	.
16F#	in-	.	.	.	.	.
8F#	-side	.	.	.	.	.
8D	I	.	.	.	.	.
=47	=47	=47	=47	=47	=47	=47
4E	feel	2.DM	D:maj (A D F#)	.	.	voice
8F#	to	.	.	.	.	.
8G	scream	.	.	.	.	.
4F#	_	.	.	.	.	.
=48	=48	=48	=48	=48	=48	=48
8r	.	2.GMM	G:maj7 (G B D F#)	.	.	voice
8A	This	.	.	.	.	.
8B	ter-	.	.	.	.	.
16B	-ri-	.	.	.	.	.
16B	-ble	.	.	.	.	.
8B	si-	.	.	.	.	.
8A	-lence	.	.	.	.	.
=49	=49	=49	=49	=49	=49	=49
*M2/4	*	*M2/4	*M2/4	*M2/4	*M2/4	*M2/4
8G	stops	4Em	E:sus2 (E F# B)	.	.	voice
8F#	with	.	.	.	.	.
4F#	me	4F#m	F#:5 (F# C#)	.	.	voice
=50	=50	=50	=50	=50	=50	=50
*M3/4	*	*M3/4	*M3/4	*M3/4	*M3/4	*M3/4
4r	.	2.Bm	B:min (B D F#)	newline	117.772	voice
8F#	Now	.	.	.	.	.
16F#	that	.	.	.	.	.
16F#	the	.	.	.	.	.
8F#	war	.	.	.	.	.
8F#	is	.	.	.	.	.
=51	=51	=51	=51	=51	=51	=51
4G	through	2.GMM	G:maj7 (G B D F#)	.	.	voice
8F#	with	.	.	.	.	.
4.F#	me	.	.	.	.	.
=52	=52	=52	=52	=52	=52	=52
4r	.	2.Bm	B:min (B D F#)	.	.	voice
8F#	I'm	.	.	.	.	.
16F#	wal-	.	.	.	.	.
16F#	-king	.	.	.	.	.
8F#	up	.	.	.	.	.
8F#	I	.	.	.	.	.
=53	=53	=53	=53	=53	=53	=53
4G	can	4AM	A:sus4 (A D E)	.	.	voice
8F#	not	2GMM	G:maj7 (G B D F#)	.	.	voice
8D	_	.	.	.	.	.
4D	see	.	.	.	.	.
=54	=54	=54	=54	=54	=54	=54
4r	.	2.Bm	B:min (B D F#)	newline	124.928	voice
8F#	that	.	.	.	.	.
8F#	there's	.	.	.	.	.
8F#	not	.	.	.	.	.
8D	much	.	.	.	.	.
=55	=55	=55	=55	=55	=55	=55
4E	left	2.DM	D:maj (A D F#)	.	.	voice
8F#	of	.	.	.	.	.
8G	me	.	.	.	.	.
4F#	_	.	.	.	.	.
=56	=56	=56	=56	=56	=56	=56
4r	.	2.GMM	G:maj7 (G B D F#)	.	.	voice
8B	Noth-	.	.	.	.	.
16B	-ing	.	.	.	.	.
16B	is	.	.	.	.	.
8B	real	.	.	.	.	.
8A	but	.	.	.	.	.
=57	=57	=57	=57	=57	=57	=57
*M2/4	*	*M2/4	*M2/4	*M2/4	*M2/4	*M2/4
8G	pain	4Em	E:sus2 (E F# B)	.	.	voice
8F#	_	.	.	.	.	.
4F#	now	4F#m	F#:5 (F# C#)	.	.	voice
=58	=58	=58	=58	=58	=58	=58
*M4/4	*	*>C_prechorus	*>C_prechorus	*>C_prechorus	*>C_prechorus	*>C_prechorus
*	*	*M4/4	*M4/4	*M4/4	*M4/4	*M4/4
4.G	Hold	1GM	G:maj (G B D)	newline	131.461	voice
8A	me	.	.	.	.	.
8B	breath	.	.	.	.	.
8A	as	.	.	.	.	.
4G	I	.	.	.	.	.
=59	=59	=59	=59	=59	=59	=59
*M2/4	*	*M2/4	*M2/4	*M2/4	*M2/4	*M2/4
4F#	wish	4F#Mm	F#:7 (F# A# C# E)	.	.	voice
8G	for	4Bm	B:min (B D F#)	.	.	voice
8A	death	.	.	.	.	.
=60	=60	=60	=60	=60	=60	=60
*M4/4	*	*M4/4	*M4/4	*M4/4	*M4/4	*M4/4
2A	_	1AM	A:maj (A C# E)	.	.	voice
8r	.	.	.	.	.	.
8A	Oh	.	.	.	.	.
4d	please	.	.	.	.	.
=61	=61	=61	=61	=61	=61	=61
*M2/4	*	*M2/4	*M2/4	*M2/4	*M2/4	*M2/4
4c#	God	4CM	C:1 (C)	.	.	voice
4d	wake	4C#m	C#:1 (C#)	.	.	voice
=62	=62	=62	=62	=62	=62	=62
*M3/4	*	*>B_preverse	*>B_preverse	*>B_preverse	*>B_preverse	*>B_preverse
*	*	*M3/4	*M3/4	*M3/4	*M3/4	*M3/4
8d	me	2.DM	D:maj (D F# A)	newline	138.431	guitar
[8d	_	.	.	.	.	.
2d_	_	.	.	.	.	.
=63	=63	=63	=63	=63	=63	=63
2.d_	_	2.GM	G:maj (G B D)	.	.	guitar
=64	=64	=64	=64	=64	=64	=64
2.d_	_	2.FM	F:maj(9) (F A C G)	.	.	guitar
=65	=65	=65	=65	=65	=65	=65
2d]	_	2.Em	E:min (E G B)	.	.	guitar
4r	.	.	.	.	.	.
=66	=66	=66	=66	=66	=66	=66
2.r	.	2.DM	D:maj (D F# A)	newline	145.501	guitar
=67	=67	=67	=67	=67	=67	=67
2.r	.	2.GM	G:maj (G B D)	.	.	guitar
=68	=68	=68	=68	=68	=68	=68
2.r	.	2.FM	F:maj(9) (F A C G)	.	.	guitar
=69	=69	=69	=69	=69	=69	=69
2.r	.	4CM	C:1 (C)	.	.	guitar
.	.	2Em	E:min (E G B)	.	.	guitar
=70	=70	=70	=70	=70	=70	=70
*	*	*>A_verse	*>A_verse	*>A_verse	*>A_verse	*>A_verse
4r	.	2.Bm	B:min (B D F#)	newline	152.602	voice
8F#	Back	.	.	.	.	.
16F#	in	.	.	.	.	.
16F#	the	.	.	.	.	.
8F#	womb	.	.	.	.	.
8F#	it's	.	.	.	.	.
=71	=71	=71	=71	=71	=71	=71
4G	much	2.GMM	G:maj7 (G B D F#)	.	.	voice
8F#	to	.	.	.	.	.
4.F#	real	.	.	.	.	.
=72	=72	=72	=72	=72	=72	=72
4r	.	2.Bm	B:min (B D F#)	.	.	voice
8F#	In	.	.	.	.	.
8F#	pumps	.	.	.	.	.
8F#	life	.	.	.	.	.
8F#	that	.	.	.	.	.
=73	=73	=73	=73	=73	=73	=73
4G	I	4AM	A:sus4 (A D E)	.	.	voice
8F#	must	2GMM	G:maj7 (G B D F#)	.	.	voice
8D	_	.	.	.	.	.
4D	feel	.	.	.	.	.
=74	=74	=74	=74	=74	=74	=74
8r	.	2.Bm	B:min (B D F#)	newline	159.758	voice
8F#	but	.	.	.	.	.
8F#	can't	.	.	.	.	.
8F#	look	.	.	.	.	.
8F#	for-	.	.	.	.	.
8D	-ward	.	.	.	.	.
=75	=75	=75	=75	=75	=75	=75
4E	to	2.DM	D:maj (A D F#)	.	.	voice
8F#	re-	.	.	.	.	.
16F#	-veal	.	.	.	.	.
16G	_	.	.	.	.	.
4F#	_	.	.	.	.	.
=76	=76	=76	=76	=76	=76	=76
4r	.	2.GMM	G:maj7 (G B D F#)	.	.	voice
8B	Look	.	.	.	.	.
16B	to	.	.	.	.	.
16B	the	.	.	.	.	.
8B	time	.	.	.	.	.
8A	when	.	.	.	.	.
=77	=77	=77	=77	=77	=77	=77
*M2/4	*	*M2/4	*M2/4	*M2/4	*M2/4	*M2/4
8G	I'll	4Em	E:sus2 (E F# B)	.	.	voice
8F#	_	.	.	.	.	.
4F#	live	4F#m	F#:5 (F# C#)	.	.	voice
=78	=78	=78	=78	=78	=78	=78
*M3/4	*	*M3/4	*M3/4	*M3/4	*M3/4	*M3/4
4r	.	2.Bm	B:min (B D F#)	newline	166.336	voice
8F#	Fed	.	.	.	.	.
16F#	through	.	.	.	.	.
16F#	the	.	.	.	.	.
8F#	tube	.	.	.	.	.
8F#	that	.	.	.	.	.
=79	=79	=79	=79	=79	=79	=79
4G	sticks	2.GMM	G:maj7 (G B D F#)	.	.	voice
8F#	in	.	.	.	.	.
4.F#	me	.	.	.	.	.
=80	=80	=80	=80	=80	=80	=80
4r	.	2.Bm	B:min (B D F#)	.	.	voice
8F#	just	.	.	.	.	.
16F#	like	.	.	.	.	.
16F#	a	.	.	.	.	.
8F#	war-	.	.	.	.	.
8F#	-time	.	.	.	.	.
=81	=81	=81	=81	=81	=81	=81
4G	nov-	4AM	A:sus4 (A D E)	.	.	voice
8F#	-el-	2GMM	G:maj7 (G B D F#)	.	.	voice
8D	_	.	.	.	.	.
4D	-ty	.	.	.	.	.
=82	=82	=82	=82	=82	=82	=82
4r	.	2.Bm	B:min (B D F#)	newline	173.458	voice
8F#	tied	.	.	.	.	.
16F#	to	.	.	.	.	.
16F#	ma-	.	.	.	.	.
8F#	-chines	.	.	.	.	.
8D	that	.	.	.	.	.
=83	=83	=83	=83	=83	=83	=83
4E	make	2.DM	D:maj (A D F#)	.	.	voice
8F#	me	.	.	.	.	.
16F#	be	.	.	.	.	.
16G	_	.	.	.	.	.
4F#	_	.	.	.	.	.
=84	=84	=84	=84	=84	=84	=84
4r	.	2.GMM	G:maj7 (G B D F#)	.	.	voice
8B	Cut	.	.	.	.	.
8B	this	.	.	.	.	.
8B	life	.	.	.	.	.
8A	off	.	.	.	.	.
=85	=85	=85	=85	=85	=85	=85
*M2/4	*	*M2/4	*M2/4	*M2/4	*M2/4	*M2/4
8G	from	4Em	E:sus2 (E F# B)	.	.	voice
8F#	_	.	.	.	.	.
4F#	me	4F#m	F#:5 (F# C#)	.	.	voice
=86	=86	=86	=86	=86	=86	=86
*M4/4	*	*>C_prechorus	*>C_prechorus	*>C_prechorus	*>C_prechorus	*>C_prechorus
*	*	*M4/4	*M4/4	*M4/4	*M4/4	*M4/4
4.G	Hold	1GM	G:maj (G B D)	newline	180.046	voice
8A	my	.	.	.	.	.
8B	breath	.	.	.	.	.
8A	as	.	.	.	.	.
4G	I	.	.	.	.	.
=87	=87	=87	=87	=87	=87	=87
*M2/4	*	*M2/4	*M2/4	*M2/4	*M2/4	*M2/4
4F#	wish	4F#Mm	F#:7 (F# A# C# E)	.	.	voice
8G	for	4Bm	B:min (B D F#)	.	.	voice
8A	death	.	.	.	.	.
=88	=88	=88	=88	=88	=88	=88
*M4/4	*	*M4/4	*M4/4	*M4/4	*M4/4	*M4/4
2A	_	1AM	A:maj (A C# E)	.	.	voice
8r	.	.	.	.	.	.
8A	Oh	.	.	.	.	.
4d	please	.	.	.	.	.
=89	=89	=89	=89	=89	=89	=89
*M2/4	*	*M2/4	*M2/4	*M2/4	*M2/4	*M2/4
4c#	God	4CM	C:1 (C)	.	.	voice
4d	wake	4C#m	C#:1 (C#)	.	.	voice
=90	=90	=90	=90	=90	=90	=90
*M3/4	*	*>B_preverse	*>B_preverse	*>B_preverse	*>B_preverse	*>B_preverse
*	*	*M3/4	*M3/4	*M3/4	*M3/4	*M3/4
8d	me	2.DM	D:maj (D F# A)	newline	187.013	guitar
[8d	_	.	.	.	.	.
2d_	_	.	.	.	.	.
=91	=91	=91	=91	=91	=91	=91
2.d_	_	2.GM	G:maj (G B D)	.	.	guitar
=92	=92	=92	=92	=92	=92	=92
2.d_	_	2.FM	F:maj(9) (F A C G)	.	.	guitar
=93	=93	=93	=93	=93	=93	=93
2d]	_	2.Em	E:min (E G B)	.	.	guitar
4r	.	.	.	.	.	.
=94	=94	=94	=94	=94	=94	=94
2.r	.	2.DM	D:maj (D F# A)	newline	194.096	guitar
=95	=95	=95	=95	=95	=95	=95
2.r	.	2.GM	G:maj (G B D)	.	.	guitar
=96	=96	=96	=96	=96	=96	=96
2.r	.	2.FM	F:maj(9) (F A C G)	.	.	guitar
=97	=97	=97	=97	=97	=97	=97
2.r	.	2.Em	E:min (E G B)	.	.	guitar
=98	=98	=98	=98	=98	=98	=98
2.r	.	2.DM	D:maj (D F# A)	newline	201.191	guitar
=99	=99	=99	=99	=99	=99	=99
2.r	.	2.GM	G:maj (G B D)	.	.	guitar
=100	=100	=100	=100	=100	=100	=100
2.r	.	2.FM	F:maj(9) (F A C G)	.	.	guitar
=101	=101	=101	=101	=101	=101	=101
2.r	.	2.Em	E:min (E G B)	.	.	guitar
=102	=102	=102	=102	=102	=102	=102
2.r	.	2.DM	D:maj (D F# A)	newline	208.338	guitar
=103	=103	=103	=103	=103	=103	=103
2.r	.	2.GM	G:maj (G B D)	.	.	guitar
=104	=104	=104	=104	=104	=104	=104
2.r	.	2.FM	F:maj(9) (F A C G)	.	.	guitar
=105	=105	=105	=105	=105	=105	=105
2.r	.	2.Em	E:min (E G B)	.	.	guitar
=106	=106	=106	=106	=106	=106	=106
*M4/4	*	*>C_prechorus	*>C_prechorus	*>C_prechorus	*>C_prechorus	*>C_prechorus
*	*	*M4/4	*M4/4	*M4/4	*M4/4	*M4/4
4.G	Now	1GM	G:maj (G B D)	newline	215.277	voice
8A	the	.	.	.	.	.
8B	world	.	.	.	.	.
8A	is	.	.	.	.	.
4G	gone	.	.	.	.	.
=107	=107	=107	=107	=107	=107	=107
*M2/4	*	*M2/4	*M2/4	*M2/4	*M2/4	*M2/4
4F#	I'm	4F#Mm	F#:7 (F# A# C# E)	.	.	voice
8G	just	4Bm	B:min (B D F#)	.	.	voice
8A	one	.	.	.	.	.
=108	=108	=108	=108	=108	=108	=108
*M4/4	*	*M4/4	*M4/4	*M4/4	*M4/4	*M4/4
2A	_	1AM	A:maj (A C# E)	.	.	voice
8r	.	.	.	.	.	.
8A	Oh	.	.	.	.	.
4d	God	.	.	.	.	.
=109	=109	=109	=109	=109	=109	=109
*M2/4	*	*M2/4	*M2/4	*M2/4	*M2/4	*M2/4
4c#	help	4Bm	B:1 (B)	.	.	voice
4d	me	4C#m	C#:1 (C#)	.	.	voice
=110	=110	=110	=110	=110	=110	=110
*M4/4	*	*M4/4	*M4/4	*M4/4	*M4/4	*M4/4
4.G	Hold	1GM	G:maj (G B D)	newline	222.145	voice
8A	my	.	.	.	.	.
8B	breath	.	.	.	.	.
8A	as	.	.	.	.	.
4G	I	.	.	.	.	.
=111	=111	=111	=111	=111	=111	=111
*M2/4	*	*M2/4	*M2/4	*M2/4	*M2/4	*M2/4
4F#	wish	4F#Mm	F#:7 (F# A# C# E)	.	.	voice
8G	for	4Bm	B:min (B D F#)	.	.	voice
[8A	death	.	.	.	.	.
=112	=112	=112	=112	=112	=112	=112
*M4/4	*	*M4/4	*M4/4	*M4/4	*M4/4	*M4/4
2A]	_	1AM	A:maj (A C# E)	.	.	voice
8r	.	.	.	.	.	.
8A	Oh	.	.	.	.	.
4d	please	.	.	.	.	.
=113	=113	=113	=113	=113	=113	=113
*M2/4	*	*M2/4	*M2/4	*M2/4	*M2/4	*M2/4
4c#	God	4Bm	B:1 (B)	.	.	voice
4d	help	4C#m	C#:1 (C#)	.	.	voice
=114	=114	=114	=114	=114	=114	=114
*M4/4	*	*M4/4	*M4/4	*M4/4	*M4/4	*M4/4
8d	me	1GM	G:maj (G B D)	newline	228.863	guitar
[4.d	_	.	.	.	.	.
2d_	_	.	.	.	.	.
=115	=115	=115	=115	=115	=115	=115
*M2/4	*	*M2/4	*M2/4	*M2/4	*M2/4	*M2/4
2d]	_	4F#Mm	F#:7 (F# A# C# E)	.	.	guitar
.	.	4Bm	B:min (B D F#)	.	.	guitar
=116	=116	=116	=116	=116	=116	=116
*G:	*	*>D_solo	*>D_solo	*>D_solo	*>D_solo	*>D_solo
*M3/4	*	*M3/4	*M3/4	*M3/4	*M3/4	*M3/4
2.r	.	2.Am	A:min (A C E)	newline	232.272	guitar
=117	=117	=117	=117	=117	=117	=117
2.r	.	2.GM	G:maj (G B D)	.	.	guitar
=118	=118	=118	=118	=118	=118	=118
2.r	.	2.BM	B:maj (B D# F#)	.	.	guitar
=119	=119	=119	=119	=119	=119	=119
2.r	.	2.CM	C:5 (C G)	.	.	guitar
=120	=120	=120	=120	=120	=120	=120
2.r	.	2.Am	A:min (A C E)	newline	238.896	guitar
=121	=121	=121	=121	=121	=121	=121
2.r	.	2.GM	G:maj (G B D)	.	.	guitar
=122	=122	=122	=122	=122	=122	=122
2.r	.	2.BM	B:maj (B D# F#)	.	.	guitar
=123	=123	=123	=123	=123	=123	=123
2.r	.	2.CM	C:5 (C G)	.	.	guitar
=124	=124	=124	=124	=124	=124	=124
2.r	.	2.Am	A:min (A C E)	newline	245.46	guitar
=125	=125	=125	=125	=125	=125	=125
2.r	.	2.GM	G:maj (G B D)	.	.	guitar
=126	=126	=126	=126	=126	=126	=126
2.r	.	2.BM	B:maj (B D# F#)	.	.	guitar
=127	=127	=127	=127	=127	=127	=127
2.r	.	2.CM	C:5 (C G)	.	.	guitar
=128	=128	=128	=128	=128	=128	=128
2.r	.	2.Am	A:min (A C E)	newline	252.048	guitar
=129	=129	=129	=129	=129	=129	=129
2.r	.	2.GM	G:maj (G B D)	.	.	guitar
=130	=130	=130	=130	=130	=130	=130
2.r	.	2.BM	B:maj (B D# F#)	.	.	guitar
=131	=131	=131	=131	=131	=131	=131
2.r	.	2.CM	C:5 (C G)	.	.	guitar
=132	=132	=132	=132	=132	=132	=132
2.r	.	2.Am	A:min (A C E)	newline	258.658	guitar
=133	=133	=133	=133	=133	=133	=133
2.r	.	2.GM	G:maj (G B D)	.	.	guitar
=134	=134	=134	=134	=134	=134	=134
2.r	.	2.BM	B:maj (B D# F#)	.	.	guitar
=135	=135	=135	=135	=135	=135	=135
2.r	.	2.CM	C:5 (C G)	.	.	guitar
=136	=136	=136	=136	=136	=136	=136
2.r	.	2.Am	A:min (A C E)	newline	265.155	guitar
=137	=137	=137	=137	=137	=137	=137
2.r	.	2.GM	G:maj (G B D)	.	.	guitar
=138	=138	=138	=138	=138	=138	=138
2.r	.	2.BM	B:maj (B D# F#)	.	.	guitar
=139	=139	=139	=139	=139	=139	=139
2.r	.	2.CM	C:5 (C G)	.	.	guitar
=140	=140	=140	=140	=140	=140	=140
*M4/4	*	*M4/4	*M4/4	*M4/4	*M4/4	*M4/4
1r	.	1CM	C:maj (C E G)	newline	271.625	guitar
=141	=141	=141	=141	=141	=141	=141
1r	.	1CM	C:maj (C E G)	.	.	guitar
=142	=142	=142	=142	=142	=142	=142
*	*	*>E_interlude	*>E_interlude	*>E_interlude	*>E_interlude	*>E_interlude
*	*	*E:	*E:	*E:	*E:	*E:
1r	.	1Em	E:5(b7) (E B D)	newline	275.924	guitar
=143	=143	=143	=143	=143	=143	=143
1r	.	1Em	E:5(b7) (E B D)	.	.	guitar
=144	=144	=144	=144	=144	=144	=144
1r	.	1Em	E:5(b7) (E B D)	.	.	guitar
=145	=145	=145	=145	=145	=145	=145
1r	.	2.Em	E:5(b7) (E B D)	.	.	guitar
.	.	4FM	F:5 (F C)	.	.	guitar
=146	=146	=146	=146	=146	=146	=146
1r	.	2.Em	E:5(b7) (E B D)	newline	284.616	guitar
.	.	4FM	F:5 (F C)	.	.	guitar
=147	=147	=147	=147	=147	=147	=147
1r	.	2.Em	E:5(b7) (E B D)	.	.	guitar
.	.	4FM	F:5 (F C)	.	.	guitar
=148	=148	=148	=148	=148	=148	=148
1r	.	2.Em	E:5(b7) (E B D)	.	.	guitar
.	.	4FM	F:maj (F A C)	.	.	guitar
=149	=149	=149	=149	=149	=149	=149
1r	.	2.Em	E:5(b7) (E B D)	.	.	guitar
.	.	4FM	F:5 (F C)	.	.	guitar
=150	=150	=150	=150	=150	=150	=150
8e	Dark-	1EM	E:maj (E G# B)	newline	293.223	voice
8e	-ness	.	.	.	.	.
8r	.	.	.	.	.	.
8e	im-	.	.	.	.	.
16e	-pris-	.	.	.	.	.
16e	-on-	.	.	.	.	.
8e	-ing	.	.	.	.	.
8e	me	.	.	.	.	.
8r	.	.	.	.	.	.
=151	=151	=151	=151	=151	=151	=151
16e	all	2.EM	E:maj (E G# B)	.	.	voice
16e	that	.	.	.	.	.
8e	I	.	.	.	.	.
8e	see	.	.	.	.	.
8r	.	.	.	.	.	.
16e	ab-	.	.	.	.	.
16e	-so-	.	.	.	.	.
8e	-lute	.	.	.	.	.
8e	hor-	4FM	F:maj (F A C)	.	.	voice
8e	-ror	.	.	.	.	.
=152	=152	=152	=152	=152	=152	=152
16e	I	1EM	E:maj (E G# B)	.	.	voice
16e	can-	.	.	.	.	.
8e	-not	.	.	.	.	.
8e	live	.	.	.	.	.
8r	.	.	.	.	.	.
16e	I	.	.	.	.	.
16e	can-	.	.	.	.	.
8e	-not	.	.	.	.	.
8e	die	.	.	.	.	.
8r	.	.	.	.	.	.
=153	=153	=153	=153	=153	=153	=153
16e	Trapped	2.EM	E:maj (E G# B)	.	.	voice
16e	in	.	.	.	.	.
8e	my-	.	.	.	.	.
8e	-self	.	.	.	.	.
8r	.	.	.	.	.	.
16e	bod-	.	.	.	.	.
16e	-y	.	.	.	.	.
8e	my	.	.	.	.	.
8e	hold-	4FM	F:maj (F A C)	.	.	voice
8e	-ing	.	.	.	.	.
=154	=154	=154	=154	=154	=154	=154
8e	cell	2.Em	E:5(b7) (E B D)	newline	301.886	guitar
4.e	_	.	.	.	.	.
2r	.	.	.	.	.	.
.	.	4FM	F:5 (F C)	.	.	guitar
=155	=155	=155	=155	=155	=155	=155
1r	.	4Em	E:5(b7) (E B D)	.	.	guitar
.	.	4DM	D:1 (D)	.	.	guitar
.	.	4EM	E:1 (E)	.	.	guitar
.	.	4FM	F:1 (F)	.	.	guitar
=156	=156	=156	=156	=156	=156	=156
1r	.	2.Em	E:5(b7) (E B D)	.	.	guitar
.	.	4FM	F:5 (F C)	.	.	guitar
=157	=157	=157	=157	=157	=157	=157
1r	.	4Em	E:5(b7) (E B D)	.	.	guitar
.	.	4DM	D:1 (D)	.	.	guitar
.	.	4Em	E:5 (E B)	.	.	guitar
.	.	4BM	B:5 (B F#)	.	.	guitar
=158	=158	=158	=158	=158	=158	=158
8g	Land-	1Em	E:5(b7) (E B D)	newline	310.55	voice
8e	-mine	.	.	.	.	.
8r	.	.	.	.	.	.
8e	has	.	.	.	.	.
16e	tak-	.	.	.	.	.
16e	-en	.	.	.	.	.
8e	my	.	.	.	.	.
8e	sight	.	.	.	.	.
8r	.	.	.	.	.	.
=159	=159	=159	=159	=159	=159	=159
16e	tak-	2.Em	E:5(b7) (E B D)	.	.	voice
16e	-en	.	.	.	.	.
8e	my	.	.	.	.	.
8e	speech	.	.	.	.	.
8r	.	.	.	.	.	.
16e	tak-	.	.	.	.	.
16e	-en	.	.	.	.	.
8e	my	.	.	.	.	.
8e	hear-	4FM	F:5 (F C)	.	.	voice
8e	-ing	.	.	.	.	.
=160	=160	=160	=160	=160	=160	=160
16e	tak-	2.Em	E:5(b7) (E B D)	.	.	voice
16e	-en	.	.	.	.	.
8e	my	.	.	.	.	.
8e	arms	.	.	.	.	.
8r	.	.	.	.	.	.
16e	tak-	.	.	.	.	.
16e	-en	.	.	.	.	.
8e	my	.	.	.	.	.
8e	legs	4FM	F:maj (F A C)	.	.	voice
8r	.	.	.	.	.	.
=161	=161	=161	=161	=161	=161	=161
16e	tak-	2.Em	E:5(b7) (E B D)	.	.	voice
16e	-en	.	.	.	.	.
8e	my	.	.	.	.	.
8e	soul	.	.	.	.	.
8r	.	.	.	.	.	.
16e	left	.	.	.	.	.
16e	me	.	.	.	.	.
8e	with	.	.	.	.	.
8e	life	4FM	F:5 (F C)	.	.	voice
8e	in	.	.	.	.	.
=162	=162	=162	=162	=162	=162	=162
4g	hell	2.Em	E:5(b7) (E B D)	newline	319.187	guitar
2.g	_	.	.	.	.	.
.	.	4FM	F:5 (F C)	.	.	guitar
=163	=163	=163	=163	=163	=163	=163
1e	_	2.Em	E:5(b7) (E B D)	.	.	guitar
.	.	4FM	F:5 (F C)	.	.	guitar
=164	=164	=164	=164	=164	=164	=164
2e	_	2.Em	E:5(b7) (E B D)	.	.	guitar
2r	.	.	.	.	.	.
.	.	4FM	F:maj (F A C)	.	.	guitar
=165	=165	=165	=165	=165	=165	=165
1r	.	2.Em	E:5(b7) (E B D)	.	.	guitar
.	.	4FM	F:5 (F C)	.	.	guitar
=166	=166	=166	=166	=166	=166	=166
1r	.	1Em	E:5 (E B)	newline	327.891	guitar
=167	=167	=167	=167	=167	=167	=167
1r	.	1Em	E:5 (E B)	.	.	guitar
=168	=168	=168	=168	=168	=168	=168
1r	.	2.Em	E:5(b7) (E B D)	newline	332.256	guitar
.	.	4FM	F:5 (F C)	.	.	guitar
=169	=169	=169	=169	=169	=169	=169
1r	.	2.Em	E:5(b7) (E B D)	.	.	guitar
.	.	4FM	F:5 (F C)	.	.	guitar
=170	=170	=170	=170	=170	=170	=170
1r	.	2.Em	E:5(b7) (E B D)	.	.	guitar
.	.	4FM	F:maj (F A C)	.	.	guitar
=171	=171	=171	=171	=171	=171	=171
1r	.	2.Em	E:5(b7) (E B D)	.	.	guitar
.	.	4FM	F:5 (F C)	.	.	guitar
=172	=172	=172	=172	=172	=172	=172
1r	.	1Em	E:5 (E B)	newline	340.847	guitar
=173	=173	=173	=173	=173	=173	=173
1r	.	1Em	E:5 (E B)	.	.	guitar
=174	=174	=174	=174	=174	=174	=174
*	*	*>E_solo	*>E_solo	*>E_solo	*>E_solo	*>E_solo
1r	.	2.Em	E:5(b7) (E B D)	newline	345.159	guitar
.	.	4FM	F:5 (F C)	.	.	guitar
=175	=175	=175	=175	=175	=175	=175
1r	.	2.Em	E:5(b7) (E B D)	.	.	guitar
.	.	4FM	F:5 (F C)	.	.	guitar
=176	=176	=176	=176	=176	=176	=176
1r	.	2.Em	E:5(b7) (E B D)	.	.	guitar
.	.	4FM	F:maj (F A C)	.	.	guitar
=177	=177	=177	=177	=177	=177	=177
1r	.	2.Em	E:5(b7) (E B D)	.	.	guitar
.	.	4FM	F:5 (F C)	.	.	guitar
=178	=178	=178	=178	=178	=178	=178
1r	.	1Em	E:5 (E B)	newline	353.776	guitar
=179	=179	=179	=179	=179	=179	=179
1r	.	1Em	E:5(b7) (E B D)	newline	355.914	guitar
=180	=180	=180	=180	=180	=180	=180
1r	.	2Em	E:5(b7) (E B D)	.	.	guitar
.	.	2Gm	G:5 (G D)	.	.	guitar
=181	=181	=181	=181	=181	=181	=181
1r	.	1Em	E:5(b7) (E B D)	.	.	guitar
=182	=182	=182	=182	=182	=182	=182
1r	.	2Em	E:5(b7) (E B D)	.	.	guitar
.	.	2Gm	G:5 (G D)	.	.	guitar
=183	=183	=183	=183	=183	=183	=183
1r	.	1Gm	G:5 (G D)	newline	364.588	guitar
=184	=184	=184	=184	=184	=184	=184
1r	.	4Gm	G:5 (G D)	.	.	guitar
.	.	4A-M	A-:5 (A- E-)	.	.	guitar
.	.	2FM	F:5 (F C)	.	.	guitar
=185	=185	=185	=185	=185	=185	=185
1r	.	1Gm	G:5 (G D)	.	.	guitar
=186	=186	=186	=186	=186	=186	=186
1r	.	4Gm	G:5 (G D)	.	.	guitar
.	.	4A-M	A-:5 (A- E-)	.	.	guitar
.	.	2FM	F:5 (F C)	.	.	guitar
=187	=187	=187	=187	=187	=187	=187
1r	.	1GMm	G:7 (G B D F)	newline	373.156	guitar
=188	=188	=188	=188	=188	=188	=188
1r	.	1FM	F:5 (F C)	.	.	guitar
=189	=189	=189	=189	=189	=189	=189
1r	.	1GMm	G:7 (G B D F)	.	.	guitar
=190	=190	=190	=190	=190	=190	=190
1r	.	1FM	F:maj (F A C)	.	.	guitar
=191	=191	=191	=191	=191	=191	=191
1r	.	2Gm	G:5 (G D)	.	.	guitar
.	.	2DM	D:5 (D A)	.	.	guitar
=192	=192	=192	=192	=192	=192	=192
1r	.	2.Em	E:5(b7) (E B D)	newline	383.895	guitar
.	.	4FM	F:5 (F C)	.	.	guitar
=193	=193	=193	=193	=193	=193	=193
1r	.	2.Em	E:5(b7) (E B D)	.	.	guitar
.	.	4FM	F:5 (F C)	.	.	guitar
=194	=194	=194	=194	=194	=194	=194
1r	.	2.Em	E:5(b7) (E B D)	.	.	guitar
.	.	4FM	F:5 (F C)	.	.	guitar
=195	=195	=195	=195	=195	=195	=195
1r	.	2.Em	E:5(b7) (E B D)	.	.	guitar
.	.	4FM	F:5 (F C)	.	.	guitar
=196	=196	=196	=196	=196	=196	=196
1r	.	1EM	E:maj (E G# B)	newline	392.547	guitar
=197	=197	=197	=197	=197	=197	=197
1r	.	2.Em	E:5(b7) (E B D)	newline	394.701	guitar
.	.	4FM	F:5 (F C)	.	.	guitar
=198	=198	=198	=198	=198	=198	=198
1r	.	2.Em	E:5(b7) (E B D)	.	.	guitar
.	.	4FM	F:5 (F C)	.	.	guitar
=199	=199	=199	=199	=199	=199	=199
1r	.	2.Em	E:5(b7) (E B D)	.	.	guitar
.	.	4FM	F:5 (F C)	.	.	guitar
=200	=200	=200	=200	=200	=200	=200
1r	.	2.Em	E:5(b7) (E B D)	.	.	guitar
.	.	4FM	F:5 (F C)	.	.	guitar
=201	=201	=201	=201	=201	=201	=201
1r	.	2.Em	E:5(b7) (E B D)	newline	403.265	guitar
.	.	4FM	F:5 (F C)	.	.	guitar
=202	=202	=202	=202	=202	=202	=202
1r	.	2.Em	E:5(b7) (E B D)	.	.	guitar
.	.	4FM	F:5 (F C)	.	.	guitar
=203	=203	=203	=203	=203	=203	=203
1r	.	2.Em	E:5(b7) (E B D)	.	.	guitar
.	.	4FM	F:5 (F C)	.	.	guitar
=204	=204	=204	=204	=204	=204	=204
1r	.	2.Em	E:5(b7) (E B D)	.	.	guitar
.	.	4FM	F:5 (F C)	.	.	guitar
=205	=205	=205	=205	=205	=205	=205
1r	.	2.Em	E:5(b7) (E B D)	newline	411.876	guitar
.	.	4FM	F:5 (F C)	.	.	guitar
=206	=206	=206	=206	=206	=206	=206
1r	.	2.Em	E:5(b7) (E B D)	newline	414.038	guitar
.	.	4FM	F:5 (F C)	.	.	guitar
=207	=207	=207	=207	=207	=207	=207
1r	.	2.Em	E:5(b7) (E B D)	.	.	guitar
.	.	4FM	F:5 (F C)	.	.	guitar
=208	=208	=208	=208	=208	=208	=208
1r	.	2.Em	E:5(b7) (E B D)	.	.	guitar
.	.	4FM	F:5 (F C)	.	.	guitar
=209	=209	=209	=209	=209	=209	=209
1r	.	2.Em	E:5(b7) (E B D)	.	.	guitar
.	.	4FM	F:5 (F C)	.	.	guitar
=210	=210	=210	=210	=210	=210	=210
1r	.	1Gm	G:5 (G D)	newline	422.607	guitar
=211	=211	=211	=211	=211	=211	=211
1r	.	2.Em	E:5(b7) (E B D)	.	.	guitar
.	.	4FM	F:5 (F C)	.	.	guitar
=212	=212	=212	=212	=212	=212	=212
1r	.	1Gm	G:5 (G D)	.	.	guitar
r;	.	1r;	r	.	442.921	r
r;	.	1r;	r	.	444.5	r
*-	*-	*-	*-	*-	*-	*-
!!!BillboardChartDate: 1989/05/20
!!!BillboardPeak: 35
!!!BillboardWeeksOnChart: 15
!!!COC: Metallica
!!!EMD: Harmonic interpretation of riffs near the end is a stretch.
!!!ENC: Nathaniel Condit-Schultz
!!!EST: Awating manual error checking and editing.
!!!OTL: One
!!!RDF**chordsym: original McGill chord annotation + (implied pitch class set, with bass pitch in first position)
!!!RDF**harmony: **recip + pitch class of root + harmonic quality
!!!RDF**leadinstrument: original McGill primary instrumentation annotation
!!!RDF**phrase: newline = linebreak in original McGill transcription
!!!RDF**timestamp: McGill audio timestamp in seconds
!!!RDT: 2017/01/12/
!!!SampleActualRank: 89
!!!SampleID#: 0884
!!!SampleTargetRank: 89
